libs/ui/packages/crypto-icons/src/svg/TYC.svg

<svg xmlns="http://www.w3.org/2000/svg" width="24" height="24" viewBox="0 0 24 24" fill="none"><path fill="#005b9f" d="m12 12.1 3.7-1.4.2-.1.8-1.5-2.8 1.1-1.9.8-3.3-1.3-1.4-.6.8 1.5.1.1z"/><path fill="#005b9f" d="M12 9.2 6.1 6.9l.8 1.4 5.1 2 5.1-2 .8-1.4zm.3 7.9.8-.3.8-4.8-1.6.7zm-1.4-.3.8.3v-4.4l-1.6-.7z"/></svg>

<svg width="24" height="24" viewBox="0 0 24 24" fill="none" xmlns="http://www.w3.org/2000/svg">
<path d="M12 12.1L15.7 10.7L15.9 10.6L16.7 9.1L13.9 10.2L12 11L8.7 9.7L7.3 9.1L8.1 10.6L8.2 10.7L12 12.1Z" fill="#005B9F"/>
<path d="M12 9.2L6.1 6.9L6.9 8.3L12 10.3L17.1 8.3L17.9 6.9L12 9.2Z" fill="#005B9F"/>
<path d="M12.3 17.1L13.1 16.8L13.9 12L12.3 12.7V17.1Z" fill="#005B9F"/>
<path d="M10.9 16.8L11.7 17.1V12.7L10.1 12L10.9 16.8Z" fill="#005B9F"/>
</svg>
